_includes/icons/color-print.svg

<svg fill="#666" height="50" viewBox="0 0 48 48" width="50" xmlns="http://www.w3.org/2000/svg"><path d="m4 26h40v-7c0-2.210937-1.789062-4-4-4h-32c-2.210937 0-4 1.789063-4 4z" fill="#616161"/><path d="m9 12h30v3h-30z" fill="#424242"/><path d="m8 37h32c2.210938 0 4-1.789062 4-4v-8h-40v8c0 2.210938 1.789063 4 4 4" fill="#424242"/><path d="m39 19c0 .550781.449219 1 1 1s1-.449219 1-1-.449219-1-1-1-1 .449219-1 1" fill="#00e676"/><path d="m37.5 32h-27c-.828125 0-1.5-.671875-1.5-1.5s.671875-1.5 1.5-1.5h27c.828125 0 1.5.671875 1.5 1.5s-.671875 1.5-1.5 1.5" fill="#242424"/><path d="m11 5h26v10h-26z" fill="#90caf9"/><path d="m11 32h26v11h-26z" fill="#90caf9"/><path d="m11 30h26v2h-26z" fill="#42a5f5"/><g fill="#1976d2"><path d="m16 34h17v2h-17z"/><path d="m16 38h13v2h-13z"/></g></svg>

<svg xmlns="http://www.w3.org/2000/svg" viewBox="0 0 48 48" width="50" height="50" fill="#666"><path d="M 4 26 L 44 26 L 44 19 C 44 16.789063 42.210938 15 40 15 L 8 15 C 5.789063 15 4 16.789063 4 19 Z" fill="#616161"/><path d="M 9 12 L 39 12 L 39 15 L 9 15 Z" fill="#424242"/><path d="M 8 37 L 40 37 C 42.210938 37 44 35.210938 44 33 L 44 25 L 4 25 L 4 33 C 4 35.210938 5.789063 37 8 37" fill="#424242"/><path d="M 39 19 C 39 19.550781 39.449219 20 40 20 C 40.550781 20 41 19.550781 41 19 C 41 18.449219 40.550781 18 40 18 C 39.449219 18 39 18.449219 39 19" fill="#00e676"/><path d="M 37.5 32 L 10.5 32 C 9.671875 32 9 31.328125 9 30.5 C 9 29.671875 9.671875 29 10.5 29 L 37.5 29 C 38.328125 29 39 29.671875 39 30.5 C 39 31.328125 38.328125 32 37.5 32" fill="#242424"/><path d="M 11 5 L 37 5 L 37 15 L 11 15 Z" fill="#90caf9"/><path d="M 11 32 L 37 32 L 37 43 L 11 43 Z" fill="#90caf9"/><path d="M 11 30 L 37 30 L 37 32 L 11 32 Z" fill="#42a5f5"/><path d="M 16 34 L 33 34 L 33 36 L 16 36 Z" fill="#1976d2"/><path d="M 16 38 L 29 38 L 29 40 L 16 40 Z" fill="#1976d2"/></svg>
